X: 9
T:And the Kirk Would Let Me Be (Giga)
M:9/8
L:1/8
S:Oswald's Caledonian Pocket Companion
Z:ps
K:G
G2 G B/c/de dBG|A2G ABd e2g|GBd gfe dBG| ABd BAG E2D||
gdg g/a/bg afd|ede gab a2g/f/|gab abg fed|efg dBG A2G||
GBd GBd GBd |Ace Ace g/f/e/f/g|GBd Bdg d/c/B/A/G |ABG dBG E2D|
g/f/g/a/g dgb afd|GBd Bdb a/g/f/e/d|gGb fFa eEg|dBG e/f/gB A2 G||
